X:13
T: WENN MEIN PFEIFCHEN DAMPFT UND GLUEHT
N: F0052
O: Europa, Mitteleuropa, Deutschland
R: Scherz - Lied, Lob des Tabaks
M: 3/4
L: 1/16
K: D
 | D6F2F2A2 | AGFGE4z4 |
D6F2F2A2 | A4E4z4 |
D6F2F2A2 | AGFGE4z4 |
A3dB2AGFEDC | E4D4z4 |
E6A2A2E2 | GFEFD4z4 |
E6c2c2^G2 | B4A4z4 |
D6F2F2A2 | AGFGE4
A3d | d6cBAGFE | E4D4z4

@@@ Tune index: 5444
